X: 18946
T: Ingonish
R: jig
M: 6/8
K: Edorian
A|Bee efg|fef dBA|B/B/B e efg|afe d2 A|
Bee efg|fef dBA|B/c/d B AGF|GEE E2:|
|:A|BEE BEE|FEF DFA|BEE BEE|FED E2 B,|
BEE BEE|FEF DFA|B/c/d B AGF|GEE E2:|

